d1 $ sound "bd(3,8)"
d2 $ sound "hh*16"
d3 $ sound "arpy"
d2 $ sound "hh*8"
d4 $ sound "insect:1*4"
d5 $ sound "insectinsect:2*8"
d6 $ shuffle 2 $ s "tech:5*8"
d6 $ shuffle 4 $ s "tech:12*4"
d1 $ sound "bd(3,8)"
d2 $ sound "hh*16"
d3 $ sound "arpy"
d2 $ sound "hh*8"
d4 $ sound "insect:1*4"
d5 $ sound "insectinsect:2*8"
d6 $ shuffle 2 $ s "tech:5*8"
d7 $ sound "wind:2*8"
d8 $ sound "tech:3*6"

hush
