d1 $ jux rev $ fast 2 $ s "tabla(3,8)" # n (run 16)

d3 $ jux rev $ fast 4 $ s "tabla(3,8)" # n (run 16)

d3 $ jux rev $ fast 6 $ s "tabla(3,8)" # n (run 16)


d4 $ fast 1 $ n "5 12 11" # s "alphabet" 
d4 $ fast 2 $ s "alphabet:12"
d4 $ fast 2 $ s "alphabet:11"

hush


d1 $ s "bd*4"